vv/controller.svg

<svg xmlns="http://www.w3.org/2000/svg" viewBox="0 0 48 48" height="1em" width="1em">
  <path d="M35.55 37a10.459 10.459 0 0 1-10.307-8.842h-2.486A10.449 10.449 0 1 1 12.45 16h23.1a10.5 10.5 0 0 1 0 21Z" style="fill-rule:evenodd;fill:#ff6e6e"/>
  <path d="M17 14h14v2H17v-2Zm0 14h-3v3h-3v-3H8v-3h3v-3h3v3h3v3Zm19-9a2 2 0 1 1-2 2 2 2 0 0 1 2-2Zm0 10a2 2 0 1 1-2 2 2 2 0 0 1 2-2Zm5-5a2 2 0 1 1-2 2 2 2 0 0 1 2-2Zm-10 0a2 2 0 1 1-2 2 2 2 0 0 1 2-2Z" style="fill:#0c0058;fill-rule:evenodd"/>
</svg>

<svg xmlns="http://www.w3.org/2000/svg" viewBox="0 0 48 48" height="1em" width="1em">
  <path d="M35.55,37a10.459,10.459,0,0,1-10.307-8.842H22.757A10.449,10.449,0,1,1,12.45,16h23.1A10.5,10.5,0,0,1,35.55,37Z" style="fill-rule:evenodd;fill:#FF6E6E"/>
  <path d="M17,14H31v2H17V14Zm0,14H14v3H11V28H8V25h3V22h3v3h3v3Zm19-9a2,2,0,1,1-2,2A2,2,0,0,1,36,19Zm0,10a2,2,0,1,1-2,2A2,2,0,0,1,36,29Zm5-5a2,2,0,1,1-2,2A2,2,0,0,1,41,24ZM31,24a2,2,0,1,1-2,2A2,2,0,0,1,31,24Z" style="fill:#0C0058;fill-rule:evenodd"/>
</svg>
